project/media/gnb_logo.svg

<?xml version="1.0" encoding="UTF-8" standalone="no"?>
<!-- Created with Inkscape (http://www.inkscape.org/) -->

<svg
   xmlns:dc="http://purl.org/dc/elements/1.1/"
   xmlns:cc="http://creativecommons.org/ns#"
   xmlns:rdf="http://www.w3.org/1999/02/22-rdf-syntax-ns#"
   xmlns:svg="http://www.w3.org/2000/svg"
   xmlns="http://www.w3.org/2000/svg"
   xmlns:sodipodi="http://sodipodi.sourceforge.net/DTD/sodipodi-0.dtd"
   xmlns:inkscape="http://www.inkscape.org/namespaces/inkscape"
   width="120.36159mm"
   height="48.370003mm"
   viewBox="0 0 426.47807 171.38977"
   id="svg5187"
   version="1.1"
   inkscape:version="0.91 r13725"
   sodipodi:docname="drawing.svg">
  <defs
     id="defs5189" />
  <sodipodi:namedview
     id="base"
     pagecolor="#ffffff"
     bordercolor="#666666"
     borderopacity="1.0"
     inkscape:pageopacity="0.0"
     inkscape:pageshadow="2"
     inkscape:zoom="0.7"
     inkscape:cx="156.6084"
     inkscape:cy="-243.37212"
     inkscape:document-units="px"
     inkscape:current-layer="layer1"
     showgrid="false"
     inkscape:window-width="1920"
     inkscape:window-height="1016"
     inkscape:window-x="0"
     inkscape:window-y="27"
     inkscape:window-maximized="1"
     fit-margin-top="0"
     fit-margin-left="0"
     fit-margin-right="0"
     fit-margin-bottom="0" />
  <metadata
     id="metadata5192">
    <rdf:RDF>
      <cc:Work
         rdf:about="">
        <dc:format>image/svg+xml</dc:format>
        <dc:type
           rdf:resource="http://purl.org/dc/dcmitype/StillImage" />
        <dc:title></dc:title>
      </cc:Work>
    </rdf:RDF>
  </metadata>
  <g
     inkscape:label="Layer 1"
     inkscape:groupmode="layer"
     id="layer1"
     transform="translate(-29.61811,-40.95303)">
    <g
       id="g8740"
       transform="translate(759.35754,397.81627)">
      <path
         style="fill:#ff0000;fill-rule:evenodd;stroke:none"
         id="path16-1"
         d="m -729.73937,-229.77543 426.47801,0 0,44.30197 -426.47801,0 0,-44.30197 z m 27.73186,22.05351 0,13.4102 -1.99593,0 -0.88817,-3.24694 c -1.60119,2.27456 -3.97324,3.41545 -7.12341,3.41545 -3.41552,0 -6.0796,-1.28292 -7.97894,-3.85652 -1.89236,-2.56639 -2.84504,-5.6906 -2.84504,-9.35936 0,-3.92148 1.00454,-7.19432 3.02011,-9.81968 2.00952,-2.61814 4.74476,-3.92808 8.19931,-3.92808 4.77715,0 7.88812,2.50861 9.34611,7.51864 l -3.07785,0.73954 c -0.44108,-1.92555 -1.27085,-3.31858 -2.48936,-4.19409 -1.2119,-0.87493 -2.541,-1.30878 -3.98599,-1.30878 -2.5539,0 -4.44031,1.03016 -5.65841,3.09171 -1.21221,2.06754 -1.82169,4.65318 -1.82169,7.77137 0,3.35046 0.68066,5.97582 2.04168,7.86828 1.36143,1.89243 3.20839,2.83957 5.55506,2.83957 1.82121,0 3.34461,-0.60356 4.56315,-1.81543 1.22453,-1.20527 1.83407,-2.8775 1.83407,-5.0034 0,-0.38935 -0.0131,-0.8623 -0.0385,-1.40685 l -6.41706,0 0,-2.71563 9.76087,0 z m 14.90796,13.57871 c -3.3312,0 -5.92406,-1.29616 -7.78403,-3.88238 -1.86055,-2.58627 -2.79383,-5.7622 -2.79383,-9.52123 0,-3.9275 0.97238,-7.16904 2.9232,-9.7228 1.95082,-2.56037 4.53107,-3.83723 7.75215,-3.83723 3.20179,0 5.76879,1.2576 7.70637,3.76621 1.9382,2.51467 2.90398,5.68399 2.90398,9.5086 0,3.66818 -0.93992,6.87059 -2.81972,9.59946 -1.87981,2.72825 -4.51119,4.08937 -7.88812,4.08937 z m 0.0776,-2.6374 c 2.26252,0 4.03824,-1.03078 5.3151,-3.09893 1.2769,-2.06094 1.91894,-4.71879 1.91894,-7.97176 0,-3.34502 -0.6613,-5.9439 -1.9839,-7.80386 -1.32202,-1.86059 -3.07847,-2.79387 -5.2694,-2.79387 -2.21678,0 -3.97925,1.0043 -5.28201,3.0207 -1.30335,2.00921 -1.95804,4.64661 -1.95804,7.90077 0,3.17593 0.66133,5.76219 1.9773,7.75211 1.31538,1.99594 3.07847,2.99484 5.28201,2.99484 z m 30.81353,-0.72028 0,2.84559 -15.30267,0 0,-25.91963 3.32518,0 0,23.07404 11.97749,0 z m 6.98734,2.84559 -3.24695,0 0,-25.91963 3.24695,0 0,25.91963 z m 23.9243,0 -3.31916,0 -2.62477,-7.577 -9.58619,0 -2.32029,7.577 -2.70962,0 8.40681,-25.91963 3.70728,0 8.44594,25.91963 z m -6.62449,-10.00741 -3.98586,-12.45767 -4.02562,12.45767 8.01148,0 z m 15.17391,10.00741 -3.2283,0 0,-23.07466 -7.42119,0 0,-2.84497 18.09592,0 0,2.84497 -7.44643,0 0,23.07466 z m 29.58179,0 -3.24756,0 0,-12.34095 -12.01722,0 0,12.34095 -3.24694,0 0,-25.91963 3.24694,0 0,10.72649 12.01722,0 0,-10.72649 3.24756,0 0,25.91963 z m 35.27959,0 -3.15006,0 -13.40419,-22.59507 0.0323,1.70532 c 0.0385,0.64806 0.0584,1.19203 0.0584,1.6331 l 0,19.25665 -2.61814,0 0,-25.91963 4.06351,0 12.53528,21.13646 -0.0385,-1.80821 c -0.0265,-0.70642 -0.0391,-1.33525 -0.0391,-1.8798 l 0,-17.44845 2.56037,0 0,25.91963 z m 23.92311,0 -3.31858,0 -2.62474,-7.577 -9.58622,0 -2.32026,7.577 -2.70961,0 8.40681,-25.91963 3.70727,0 8.44533,25.91963 z m -6.6245,-10.00741 -3.98586,-12.45767 -4.02499,12.45767 8.01085,0 z m 15.17392,10.00741 -3.2283,0 0,-23.07466 -7.42119,0 0,-2.84497 18.09654,0 0,2.84497 -7.44705,0 0,23.07466 z m 14.31763,0 -3.24694,0 0,-25.91963 3.24694,0 0,25.91963 z m 15.42,0.51209 c -3.33119,0 -5.92406,-1.29616 -7.78402,-3.88238 -1.86055,-2.58627 -2.79383,-5.7622 -2.79383,-9.52123 0,-3.9275 0.9718,-7.16904 2.9232,-9.7228 1.95082,-2.56037 4.53106,-3.83723 7.75215,-3.83723 3.20182,0 5.76879,1.2576 7.70637,3.76621 1.9382,2.51467 2.90398,5.68399 2.90398,9.5086 0,3.66818 -0.93992,6.87059 -2.81973,9.59946 -1.8798,2.72825 -4.51118,4.08937 -7.88812,4.08937 z m 0.0776,-2.6374 c 2.2619,0 4.03823,-1.03078 5.3151,-3.09893 1.2769,-2.06094 1.91894,-4.71879 1.91894,-7.97176 0,-3.34502 -0.6613,-5.9439 -1.9839,-7.80386 -1.32202,-1.86059 -3.07847,-2.79387 -5.2694,-2.79387 -2.21678,0 -3.97984,1.0043 -5.28202,3.0207 -1.30334,2.00921 -1.958,4.64661 -1.958,7.90077 0,3.17593 0.6613,5.76219 1.97726,7.75211 1.31542,1.99594 3.07847,2.99484 5.28202,2.99484 z m 34.59244,2.12531 -3.15007,0 -13.40361,-22.59507 0.0327,1.70532 c 0.0385,0.64806 0.0584,1.19203 0.0584,1.6331 l 0,19.25665 -2.61876,0 0,-25.91963 4.06351,0 12.53532,21.13646 -0.0385,-1.80821 c -0.0258,-0.70642 -0.0391,-1.33525 -0.0391,-1.8798 l 0,-17.44845 2.56037,0 0,25.91963 z m 23.92368,0 -3.31854,0 -2.62536,-7.577 -9.58621,0 -2.3203,7.577 -2.70958,0 8.40739,-25.91963 3.70669,0 8.44591,25.91963 z m -6.62446,-10.00741 -3.98589,-12.45767 -4.025,12.45767 8.01089,0 z m 25.31067,7.16182 0,2.84559 -15.30325,0 0,-25.91963 3.32517,0 0,23.07404 11.97808,0 z m 13.46258,2.84559 0,-25.91963 10.25412,0 c 2.57962,0 4.49795,0.63483 5.74235,1.89907 1.251,1.26424 1.8732,2.73547 1.8732,4.40768 0,2.93586 -1.53622,4.88668 -4.59544,5.84644 1.82145,0.46635 3.17593,1.30214 4.0641,2.50803 0.88754,1.19924 1.32862,2.56036 1.32862,4.08335 0,2.03566 -0.68716,3.73977 -2.06094,5.11413 -1.37435,1.37377 -3.49365,2.06093 -6.35189,2.06093 l -10.25412,0 z m 3.13023,-14.81046 5.64544,0 c 2.34014,0 3.90222,-0.44709 4.68691,-1.34124 0.78404,-0.88816 1.17937,-1.9382 1.17937,-3.14405 0,-1.18604 -0.42119,-2.15182 -1.26424,-2.8841 -0.84243,-0.73232 -2.10004,-1.10179 -3.77224,-1.10179 l -6.47524,0 0,8.47118 z m 0,11.96487 6.95542,0 c 1.69146,0 3.00684,-0.41459 3.9275,-1.23776 0.92668,-0.82317 1.38701,-1.89246 1.38701,-3.20843 0,-0.92668 -0.2076,-1.78235 -0.62884,-2.57302 -0.41459,-0.79067 -1.00426,-1.39963 -1.76305,-1.83469 -0.75818,-0.42721 -1.89246,-0.64146 -3.4028,-0.64146 l -6.47524,0 0,9.49536 z m 37.82672,2.84559 -3.31857,0 -2.62475,-7.577 -9.58621,0 -2.32088,7.577 -2.709,0 8.40681,-25.91963 3.70728,0 8.44532,25.91963 z m -6.62449,-10.00741 -3.98586,-12.45767 -4.025,12.45767 8.01086,0 z m 29.08957,10.00741 -3.15007,0 -13.40419,-22.59507 0.033,1.70532 c 0.0385,0.64806 0.0584,1.19203 0.0584,1.6331 l 0,19.25665 -2.61876,0 0,-25.91963 4.06351,0 12.53528,21.13646 -0.0385,-1.80821 c -0.0258,-0.70642 -0.0391,-1.33525 -0.0391,-1.8798 l 0,-17.44845 2.56037,0 0,25.91963 z m 26.96306,0 -3.55201,0 -7.74551,-14.29837 -5.94332,7.38869 0,6.90968 -3.24697,0 0,-25.91963 3.24697,0 0,15.03729 11.71875,-15.03729 3.51291,0 -7.02585,9.07413 9.03503,16.8455 z"
         inkscape:connector-curvature="0" />
      <path
         style="fill:#000080;fill-rule:evenodd;stroke:none"
         id="path18-4"
         d="m -641.61037,-277.48804 -11.98471,0 0,-22.27013 52.49158,0 c 0,12.82051 -0.89298,22.35617 -2.70841,28.60817 -1.72816,6.02096 -5.38732,12.12914 -10.97619,18.3234 -5.44571,6.13586 -12.04249,10.60193 -19.82108,13.42523 -7.77921,2.79445 -16.10479,4.20612 -24.97853,4.20612 -13.22369,0 -25.23728,-2.18968 -36.04142,-6.59798 -10.86068,-4.26331 -19.24424,-11.35051 -25.15031,-21.23216 -5.96395,-9.73784 -8.95999,-20.6569 -8.95999,-32.75713 0,-18.26501 6.02141,-33.01587 18.06373,-44.22257 11.92711,-11.20728 26.56246,-16.79615 43.90622,-16.79615 14.46203,0 25.78485,3.5147 33.99551,10.54416 l 0,-10.60616 28.29106,0 0,43.45053 -28.29106,0 c -2.47735,-5.07018 -5.67557,-8.87374 -9.65121,-11.46602 -3.97627,-2.59345 -8.58553,-3.8896 -13.88681,-3.8896 -7.4326,0 -12.87765,2.42019 -16.3635,7.26052 -3.42807,4.83974 -5.15746,13.71289 -5.15746,26.64833 0,12.87831 1.81543,21.63654 5.41679,26.24639 3.62966,4.66645 8.95982,6.99995 15.93147,6.99995 10.57308,0 15.87432,-5.30065 15.87432,-15.8737 z"
         inkscape:connector-curvature="0" />
      <path
         style="fill:#000080;fill-rule:evenodd;stroke:none"
         id="path20-3"
         d="m -547.27309,-235.19525 -49.24821,0 0,-28.70084 10.50925,0 0,-64.17604 -10.50925,0 0,-28.73093 56.8433,0 43.62564,62.70179 0,-33.97086 -9.74389,0 0,-28.73093 136.5278,0 c 14.56375,0 25.84384,0.83579 33.84145,2.5363 7.87849,1.76126 14.0559,5.22303 18.53218,10.4154 4.47628,5.28202 6.74482,11.48948 6.74482,18.53214 0,6.86398 -2.1488,12.35481 -6.3868,16.44298 -4.38663,4.17782 -9.66923,7.10284 -15.90561,8.71428 8.56448,2.56638 15.12997,6.53543 19.7555,11.9071 4.655,5.46073 6.9831,11.60863 6.9831,18.44252 0,8.14686 -2.62594,15.09988 -7.87849,20.8001 -5.22242,5.67013 -12.44442,9.37018 -21.57633,11.10136 -9.04225,1.82025 -22.23223,2.71563 -39.60064,2.71563 l -132.56719,-0.0915 -50.54375,-72.53289 0,43.8934 10.59712,0 0,28.73034 z m 69.81969,-101.33844 26.34145,19.13691 26.34147,-19.13691 -10.05916,30.96577 26.34866,19.14234 -32.5694,-0.003 -10.06157,30.9658 -10.06158,-30.9658 -32.5706,0.003 26.35169,-19.14172 -10.06096,-30.96639 z m 91.5037,50.72609 0,23.93393 10.56345,0 c 6.77487,0 11.6393,-0.86529 14.59322,-2.62598 2.92441,-1.73118 4.38721,-4.8343 4.38721,-9.25164 0,-4.14773 -1.31297,-7.19192 -3.93953,-9.16138 -2.62595,-1.93999 -7.69919,-2.89493 -15.21904,-2.89493 l -10.38531,0 z m 0,-44.31583 0,22.17266 10.38531,0 c 7.07217,0 11.6977,-1.01451 13.90606,-3.04356 2.0892,-2.05911 3.16331,-4.71519 3.16331,-8.0578 0,-2.83475 -0.98445,-5.40117 -2.89494,-7.66909 -1.93998,-2.26793 -7.19191,-3.40221 -15.81654,-3.40221 l -8.7432,0 z"
         inkscape:connector-curvature="0" />
      <path
         style="fill:#ffffff;fill-rule:evenodd;stroke:none"
         id="path22-9"
         d="m -477.45402,-336.53369 26.34207,19.13691 26.34206,-19.13691 -10.05975,30.96577 26.34928,19.14234 -32.57002,-0.003 -10.06157,30.96577 -10.06158,-30.96577 -32.56998,0.003 26.35169,-19.14172 -10.0622,-30.96639 z"
         inkscape:connector-curvature="0" />
      <path
         style="fill:#cccccc;fill-rule:evenodd;stroke:none"
         id="path24-7"
         d="m -473.50062,-330.44655 22.38746,16.26305 22.38688,-16.26305 -8.54942,26.3162 22.39348,16.26845 -27.68031,-0.003 -8.55121,26.31679 -8.55063,-26.31679 -27.68031,0.003 22.39527,-16.26787 -8.55121,-26.31678 z"
         inkscape:connector-curvature="0" />
      <path
         style="fill:#ffffff;fill-rule:evenodd;stroke:none"
         id="path26-7"
         d="m -471.26038,-327.00284 20.14843,14.63718 20.14784,-14.63718 -7.69379,23.68483 20.15386,14.64136 -24.91234,-0.003 -7.69557,23.68479 -7.69616,-23.68479 -24.91176,0.003 20.15565,-14.64078 -7.69616,-23.68541 z"
         inkscape:connector-curvature="0" />
    </g>
  </g>
</svg>

<?xml version="1.0" standalone="no"?>
<!DOCTYPE svg PUBLIC "-//W3C//DTD SVG 1.1//EN" "http://www.w3.org/Graphics/SVG/1.1/DTD/svg11.dtd">
<svg width="100%" height="100%" viewBox="0 0 512 206" version="1.1" xmlns="http://www.w3.org/2000/svg" xmlns:xlink="http://www.w3.org/1999/xlink" xml:space="preserve" style="fill-rule:evenodd;clip-rule:evenodd;stroke-linejoin:round;stroke-miterlimit:1.41421;">
    <g id="g8740" transform="matrix(1.20053,0,0,1.20053,876.075,428.425)">
        <path id="path16-1" d="M-729.739,-229.775L-303.261,-229.775L-303.261,-185.473L-729.739,-185.473L-729.739,-229.775L-729.739,-229.775ZM-702.008,-207.722L-702.008,-194.312L-704.003,-194.312L-704.892,-197.559C-706.493,-195.284 -708.865,-194.143 -712.015,-194.143C-715.431,-194.143 -718.095,-195.426 -719.994,-198C-721.886,-200.566 -722.839,-203.69 -722.839,-207.359C-722.839,-211.281 -721.834,-214.553 -719.819,-217.179C-717.809,-219.797 -715.074,-221.107 -711.62,-221.107C-706.842,-221.107 -703.731,-218.598 -702.273,-213.588L-705.351,-212.849C-705.792,-214.774 -706.622,-216.167 -707.841,-217.043C-709.053,-217.918 -710.382,-218.352 -711.827,-218.352C-714.381,-218.352 -716.267,-217.321 -717.485,-215.26C-718.697,-213.192 -719.307,-210.607 -719.307,-207.488C-719.307,-204.138 -718.626,-201.513 -717.265,-199.62C-715.904,-197.728 -714.057,-196.781 -711.71,-196.781C-709.889,-196.781 -708.365,-197.384 -707.147,-198.596C-705.922,-199.801 -705.313,-201.474 -705.313,-203.599C-705.313,-203.989 -705.326,-204.462 -705.351,-205.006L-711.768,-205.006L-711.768,-207.722L-702.008,-207.722L-702.008,-207.722ZM-687.1,-194.143C-690.431,-194.143 -693.024,-195.439 -694.884,-198.026C-696.744,-200.612 -697.677,-203.788 -697.677,-207.547C-697.677,-211.474 -696.705,-214.716 -694.754,-217.27C-692.803,-219.83 -690.223,-221.107 -687.002,-221.107C-683.8,-221.107 -681.233,-219.849 -679.296,-217.341C-677.357,-214.826 -676.392,-211.657 -676.392,-207.832C-676.392,-204.164 -677.332,-200.961 -679.211,-198.233C-681.091,-195.504 -683.723,-194.143 -687.1,-194.143L-687.1,-194.143ZM-687.022,-196.781C-684.759,-196.781 -682.984,-197.811 -681.707,-199.88C-680.43,-201.94 -679.788,-204.598 -679.788,-207.851C-679.788,-211.196 -680.449,-213.795 -681.772,-215.655C-683.094,-217.516 -684.85,-218.449 -687.041,-218.449C-689.258,-218.449 -691.02,-217.445 -692.323,-215.428C-693.627,-213.419 -694.281,-210.782 -694.281,-207.528C-694.281,-204.352 -693.62,-201.765 -692.304,-199.775C-690.989,-197.78 -689.225,-196.781 -687.022,-196.781L-687.022,-196.781ZM-656.208,-197.501L-656.208,-194.655L-671.511,-194.655L-671.511,-220.575L-668.186,-220.575L-668.186,-197.501L-656.208,-197.501ZM-649.221,-194.655L-652.468,-194.655L-652.468,-220.575L-649.221,-220.575L-649.221,-194.655ZM-625.297,-194.655L-628.616,-194.655L-631.241,-202.232L-640.827,-202.232L-643.147,-194.655L-645.857,-194.655L-637.45,-220.575L-633.743,-220.575L-625.297,-194.655ZM-631.921,-204.663L-635.907,-217.12L-639.933,-204.663L-631.921,-204.663ZM-616.747,-194.655L-619.976,-194.655L-619.976,-217.73L-627.397,-217.73L-627.397,-220.575L-609.301,-220.575L-609.301,-217.73L-616.747,-217.73L-616.747,-194.655ZM-587.166,-194.655L-590.413,-194.655L-590.413,-206.996L-602.43,-206.996L-602.43,-194.655L-605.677,-194.655L-605.677,-220.575L-602.43,-220.575L-602.43,-209.848L-590.413,-209.848L-590.413,-220.575L-587.166,-220.575L-587.166,-194.655ZM-551.886,-194.655L-555.036,-194.655L-568.44,-217.25L-568.408,-215.545C-568.369,-214.897 -568.35,-214.353 -568.35,-213.912L-568.35,-194.655L-570.968,-194.655L-570.968,-220.575L-566.904,-220.575L-554.369,-199.438L-554.407,-201.247C-554.434,-201.953 -554.446,-202.582 -554.446,-203.126L-554.446,-220.575L-551.886,-220.575L-551.886,-194.655L-551.886,-194.655ZM-527.963,-194.655L-531.281,-194.655L-533.906,-202.232L-543.492,-202.232L-545.813,-194.655L-548.522,-194.655L-540.115,-220.575L-536.408,-220.575L-527.963,-194.655ZM-534.587,-204.663L-538.573,-217.12L-542.598,-204.663L-534.587,-204.663ZM-519.413,-194.655L-522.642,-194.655L-522.642,-217.73L-530.063,-217.73L-530.063,-220.575L-511.966,-220.575L-511.966,-217.73L-519.413,-217.73L-519.413,-194.655ZM-505.096,-194.655L-508.343,-194.655L-508.343,-220.575L-505.096,-220.575L-505.096,-194.655ZM-489.676,-194.143C-493.007,-194.143 -495.6,-195.439 -497.46,-198.026C-499.32,-200.612 -500.254,-203.788 -500.254,-207.547C-500.254,-211.474 -499.282,-214.716 -497.33,-217.27C-495.38,-219.83 -492.799,-221.107 -489.578,-221.107C-486.377,-221.107 -483.81,-219.849 -481.872,-217.341C-479.934,-214.826 -478.968,-211.657 -478.968,-207.832C-478.968,-204.164 -479.908,-200.961 -481.788,-198.233C-483.668,-195.504 -486.299,-194.143 -489.676,-194.143L-489.676,-194.143ZM-489.598,-196.781C-487.336,-196.781 -485.56,-197.811 -484.283,-199.88C-483.006,-201.94 -482.364,-204.598 -482.364,-207.851C-482.364,-211.196 -483.025,-213.795 -484.348,-215.655C-485.67,-217.516 -487.427,-218.449 -489.617,-218.449C-491.834,-218.449 -493.597,-217.445 -494.9,-215.428C-496.203,-213.419 -496.858,-210.782 -496.858,-207.528C-496.858,-204.352 -496.196,-201.765 -494.88,-199.775C-493.565,-197.78 -491.802,-196.781 -489.598,-196.781L-489.598,-196.781ZM-455.006,-194.655L-458.156,-194.655L-471.559,-217.25L-471.527,-215.545C-471.488,-214.897 -471.468,-214.353 -471.468,-213.912L-471.468,-194.655L-474.087,-194.655L-474.087,-220.575L-470.024,-220.575L-457.488,-199.438L-457.527,-201.247C-457.553,-201.953 -457.566,-202.582 -457.566,-203.126L-457.566,-220.575L-455.006,-220.575L-455.006,-194.655L-455.006,-194.655ZM-431.082,-194.655L-434.401,-194.655L-437.026,-202.232L-446.612,-202.232L-448.933,-194.655L-451.642,-194.655L-443.235,-220.575L-439.528,-220.575L-431.082,-194.655ZM-437.707,-204.663L-441.692,-217.12L-445.717,-204.663L-437.707,-204.663ZM-412.396,-197.501L-412.396,-194.655L-427.699,-194.655L-427.699,-220.575L-424.374,-220.575L-424.374,-197.501L-412.396,-197.501ZM-398.933,-194.655L-398.933,-220.575L-388.679,-220.575C-386.1,-220.575 -384.181,-219.94 -382.937,-218.676C-381.686,-217.412 -381.064,-215.94 -381.064,-214.268C-381.064,-211.332 -382.6,-209.382 -385.659,-208.422C-383.838,-207.955 -382.483,-207.12 -381.595,-205.914C-380.707,-204.714 -380.266,-203.353 -380.266,-201.83C-380.266,-199.795 -380.954,-198.091 -382.327,-196.716C-383.702,-195.342 -385.821,-194.655 -388.679,-194.655L-398.933,-194.655L-398.933,-194.655ZM-395.803,-209.466L-390.158,-209.466C-387.818,-209.466 -386.255,-209.913 -385.471,-210.807C-384.687,-211.695 -384.291,-212.745 -384.291,-213.951C-384.291,-215.137 -384.713,-216.103 -385.556,-216.835C-386.398,-217.567 -387.656,-217.937 -389.328,-217.937L-395.803,-217.937L-395.803,-209.466ZM-395.803,-197.501L-388.848,-197.501C-387.156,-197.501 -385.841,-197.915 -384.92,-198.739C-383.993,-199.562 -383.533,-200.631 -383.533,-201.947C-383.533,-202.874 -383.741,-203.729 -384.162,-204.52C-384.577,-205.311 -385.166,-205.92 -385.925,-206.355C-386.683,-206.782 -387.818,-206.996 -389.328,-206.996L-395.803,-206.996L-395.803,-197.501ZM-357.976,-194.655L-361.295,-194.655L-363.92,-202.232L-373.506,-202.232L-375.827,-194.655L-378.536,-194.655L-370.129,-220.575L-366.422,-220.575L-357.976,-194.655ZM-364.601,-204.663L-368.587,-217.12L-372.612,-204.663L-364.601,-204.663ZM-335.511,-194.655L-338.661,-194.655L-352.066,-217.25L-352.033,-215.545C-351.994,-214.897 -351.974,-214.353 -351.974,-213.912L-351.974,-194.655L-354.593,-194.655L-354.593,-220.575L-350.529,-220.575L-337.994,-199.438L-338.033,-201.247C-338.058,-201.953 -338.072,-202.582 -338.072,-203.126L-338.072,-220.575L-335.511,-220.575L-335.511,-194.655L-335.511,-194.655ZM-308.548,-194.655L-312.1,-194.655L-319.846,-208.954L-325.789,-201.565L-325.789,-194.655L-329.036,-194.655L-329.036,-220.575L-325.789,-220.575L-325.789,-205.538L-314.07,-220.575L-310.557,-220.575L-317.583,-211.501L-308.548,-194.655Z" style="fill:rgb(255,0,0);"/>
        <path id="path18-4" d="M-641.61,-277.488L-653.595,-277.488L-653.595,-299.758L-601.103,-299.758C-601.103,-286.938 -601.996,-277.402 -603.812,-271.15C-605.54,-265.129 -609.199,-259.021 -614.788,-252.827C-620.234,-246.691 -626.831,-242.225 -634.609,-239.401C-642.388,-236.607 -650.714,-235.195 -659.588,-235.195C-672.811,-235.195 -684.825,-237.385 -695.629,-241.793C-706.49,-246.057 -714.873,-253.144 -720.779,-263.025C-726.743,-272.763 -729.739,-283.682 -729.739,-295.783C-729.739,-314.048 -723.718,-328.798 -711.676,-340.005C-699.749,-351.212 -685.113,-356.801 -667.769,-356.801C-653.307,-356.801 -641.985,-353.287 -633.774,-346.257L-633.774,-356.863L-605.483,-356.863L-605.483,-313.413L-633.774,-313.413C-636.251,-318.483 -639.45,-322.286 -643.425,-324.879C-647.401,-327.472 -652.011,-328.768 -657.312,-328.768C-664.745,-328.768 -670.19,-326.348 -673.675,-321.508C-677.104,-316.668 -678.833,-307.795 -678.833,-294.859C-678.833,-281.981 -677.018,-273.223 -673.416,-268.613C-669.787,-263.947 -664.456,-261.613 -657.485,-261.613C-646.912,-261.613 -641.61,-266.914 -641.61,-277.487L-641.61,-277.488Z" style="fill:rgb(0,0,128);"/>
        <g id="path20-3" transform="matrix(1,0,0,1,2.44245,-0.06018)">
            <path d="M-547.273,-235.195L-596.521,-235.195L-596.521,-263.896L-586.012,-263.896L-586.012,-328.072L-596.521,-328.072L-596.521,-356.803L-539.678,-356.803L-496.052,-294.101L-496.052,-328.072L-505.796,-328.072L-505.796,-356.803L-369.268,-356.803C-354.705,-356.803 -343.425,-355.967 -335.427,-354.267C-327.549,-352.506 -321.371,-349.044 -316.895,-343.851C-312.419,-338.569 -310.15,-332.362 -310.15,-325.319C-310.15,-318.455 -312.299,-312.964 -316.537,-308.876C-320.923,-304.698 -326.206,-301.773 -332.442,-300.162C-323.878,-297.596 -317.312,-293.627 -312.687,-288.255C-308.032,-282.794 -305.704,-276.646 -305.704,-269.812C-305.704,-261.665 -308.33,-254.712 -313.582,-249.012C-318.805,-243.342 -326.027,-239.642 -335.159,-237.911C-344.201,-236.091 -357.391,-235.195 -374.759,-235.195L-507.326,-235.287L-557.87,-307.82L-557.87,-263.926L-547.273,-263.926L-547.273,-235.195ZM-477.453,-336.534L-451.112,-317.397L-424.77,-336.534L-434.83,-305.568L-408.481,-286.426L-441.05,-286.429L-451.112,-255.463L-461.174,-286.429L-493.744,-286.426L-467.392,-305.567L-477.453,-336.534ZM-385.95,-285.808L-385.95,-261.874L-375.386,-261.874C-368.611,-261.874 -363.747,-262.739 -360.793,-264.5C-357.869,-266.231 -356.406,-269.334 -356.406,-273.751C-356.406,-277.899 -357.719,-280.943 -360.345,-282.913C-362.971,-284.853 -368.045,-285.808 -375.564,-285.808L-385.95,-285.808L-385.95,-285.808ZM-385.95,-330.123L-385.95,-307.951L-375.564,-307.951C-368.492,-307.951 -363.867,-308.965 -361.658,-310.994C-359.569,-313.053 -358.495,-315.71 -358.495,-319.052C-358.495,-321.887 -359.479,-324.453 -361.39,-326.721C-363.33,-328.989 -368.582,-330.123 -377.207,-330.123L-385.95,-330.123L-385.95,-330.123Z" style="fill:rgb(0,0,128);"/>
        </g>
    </g>
</svg>
